; generated by PrusaSlicer 2.9.5 on 2026-06-01 at 13:38:18 UTC


;
;
; 

; external perimeters extrusion width = 0.45mm
; perimeters extrusion width = 0.45mm
; infill extrusion width = 0.45mm
; solid infill extrusion width = 0.45mm
; top infill extrusion width = 0.40mm
; first layer extrusion width = 0.42mm

; external perimeters extrusion width = 0.45mm
; perimeters extrusion width = 0.45mm
; infill extrusion width = 0.45mm
; solid infill extrusion width = 0.45mm
; top infill extrusion width = 0.40mm
; first layer extrusion width = 0.42mm

M73 P0 R31
M73 Q0 S31
M201 X1000 Y1000 Z200 E5000 ; sets maximum accelerations, mm/sec^2
M203 X200 Y200 Z12 E120 ; sets maximum feedrates, mm / sec
M204 S1250 T1250 ; sets acceleration (S) and retract acceleration (R), mm/sec^2
M205 X8.00 Y8.00 Z0.40 E4.50 ; sets the jerk limits, mm/sec
M205 S0 T0 ; sets the minimum extruding and travel feed rate, mm/sec

; printing object bara_32cm.stl id:0 copy 0
; stop printing object bara_32cm.stl id:0 copy 0
; printing object bara_32cm.stl id:1 copy 0
; stop printing object bara_32cm.stl id:1 copy 0

;TYPE:Custom
M862.3 P "MK3S" ; printer model check
M862.1 P0.4 ; nozzle diameter check
M115 U3.14.1 ; tell printer latest fw version
G90 ; use absolute coordinates
M83 ; extruder relative mode
M104 S250 ; set extruder temp
M140 S85 ; set bed temp
M190 S85 ; wait for bed temp
M109 S250 ; wait for extruder temp
G28 W ; home all without mesh bed level
G80 X39.0218 Y91.3272 W175.365 H44.1799 ; mesh bed levelling

G1 Z0.2 F720
G1 Y-3 F1000 ; go outside print area
G92 E0
G1 X60 E9 F1000 ; intro line
G1 X100 E12.5 F1000 ; intro line

G92 E0
M221 S95

; Don't change E values below. Excessive value can damage the printer.
M907 E430 ; set extruder motor current
G21 ; set units to millimeters
G90 ; use absolute coordinates
M83 ; use relative distances for extrusion

M900 K0.08 ; Filament gcode LA 1.5
M900 K45 ; Filament gcode LA 1.0




M107
;LAYER_CHANGE
;Z:0.2
;HEIGHT:0.2
G1 E-1 F2100
G1 Z.4 F720
G1 X43.599 Y93.436 F10800
G1 Z.2 F720
G1 E1 F2100
M204 S800
;TYPE:Skirt/Brim
;WIDTH:0.42
G1 F1200
G1 X45.141 Y92.783 E.0525
G1 X208.977 Y91.516 E5.13712
G1 X210.536 Y92.151 E.05278
G1 X213.551 Y95.143 E.13318
G1 X214.198 Y96.696 E.05275
G1 X214.197 Y101.863 E.16201
G1 X213.401 Y128.917 E.84863
G1 X212.773 Y130.388 E.05015
G1 X209.808 Y133.399 E.1325
G1 X208.266 Y134.052 E.0525
G1 X44.431 Y135.319 E5.13708
G1 X42.873 Y134.684 E.05275
M73 P1 R30
M73 Q1 S31
G1 X39.857 Y131.691 E.13323
G1 X39.21 Y130.138 E.05275
G1 X39.211 Y124.971 E.16201
G1 X40.006 Y97.918 E.84859
G1 X40.635 Y96.446 E.05019
G1 X43.557 Y93.479 E.13057
M204 S1000
;WIPE_START
G1 F8640
G1 X43.599 Y93.436 E-.01388
G1 X45.141 Y92.783 E-.38666
G1 X47.737 Y92.763 E-.59946
;WIPE_END
G1 Z.4 F720
G1 X46.015 Y122.327 F10800
G1 Z.2 F720
G1 E1 F2100
M204 S800
G1 F1200
G1 X207.027 Y121.16 E5.04855
G1 X207.905 Y121.433 E.02883
G1 X208.751 Y121.869 E.02984
G1 X210.156 Y123.291 E.06268
G1 X210.582 Y124.136 E.02967
G1 X210.843 Y125.066 E.03029
G1 X210.916 Y127.159 E.06566
G1 X210.318 Y129.142 E.06494
G1 X209.365 Y130.329 E.04773
G1 X208.036 Y131.198 E.04979
G1 X206.554 Y131.59 E.04807
M73 P2 R30
G1 X46.088 Y132.831 E5.03145
G1 X44.125 Y132.229 E.06438
M73 Q2 S31
G1 X43.516 Y131.802 E.02332
G1 X42.936 Y131.268 E.02472
G1 X42.068 Y129.924 E.05016
G1 X41.683 Y128.396 E.04941
G1 X41.751 Y126.26 E.06701
G1 X42.03 Y125.316 E.03086
G1 X42.501 Y124.432 E.03141
G1 X43.206 Y123.616 E.03381
G1 X44.027 Y122.981 E.03254
G1 X45.958 Y122.345 E.06374
M204 S1000
G1 X46.047 Y122.703 F10800
M204 S800
G1 F1200
G1 X206.943 Y121.529 E5.04492
G1 X207.777 Y121.788 E.02738
M73 Q2 S30
G1 X208.551 Y122.19 E.02735
G1 X209.833 Y123.487 E.05718
G1 X210.236 Y124.289 E.02814
G1 X210.474 Y125.144 E.02783
G1 X210.538 Y127.14 E.06262
G1 X209.991 Y128.951 E.05932
G1 X209.103 Y130.058 E.0445
G1 X207.908 Y130.841 E.0448
G1 X206.526 Y131.213 E.04487
G1 X46.113 Y132.453 E5.02979
G1 X44.317 Y131.903 E.05889
M73 P3 R30
M73 Q3 S30
G1 X43.208 Y131.006 E.04472
G1 X42.426 Y129.8 E.04507
G1 X42.06 Y128.38 E.04598
G1 X42.119 Y126.342 E.06393
G1 X42.373 Y125.474 E.02836
G1 X42.801 Y124.662 E.02878
G1 X43.479 Y123.877 E.03252
G1 X44.231 Y123.3 E.02972
G1 X45.99 Y122.722 E.05805
M204 S1000
G1 X46.079 Y123.08 F10800
M204 S800
G1 F1200
G1 X206.86 Y121.898 E5.04131
G1 X207.619 Y122.131 E.02489
G1 X208.351 Y122.511 E.02586
G1 X209.51 Y123.684 E.0517
G1 X209.878 Y124.409 E.02549
G1 X210.104 Y125.223 E.02649
G1 X210.16 Y127.12 E.05951
G1 X209.664 Y128.761 E.05375
G1 X208.84 Y129.786 E.04124
G1 X207.728 Y130.509 E.04159
G1 X206.5 Y130.836 E.03984
G1 X46.139 Y132.076 E5.02816
G1 X44.508 Y131.576 E.05349
M73 P4 R30
M73 Q4 S30
G1 X43.481 Y130.745 E.04142
G1 X42.76 Y129.622 E.04184
G1 X42.438 Y128.363 E.04075
G1 X42.489 Y126.423 E.06085
G1 X42.716 Y125.631 E.02583
G1 X43.101 Y124.891 E.02615
G1 X43.751 Y124.139 E.03117
G1 X44.434 Y123.62 E.0269
G1 X46.021 Y123.099 E.05237
M204 S1000
G1 X46.11 Y123.457 F10800
M204 S800
G1 F1200
G1 X206.778 Y122.267 E5.03777
G1 X207.461 Y122.474 E.02238
M73 P4 R29
G1 X208.151 Y122.832 E.02437
G1 X209.187 Y123.881 E.04623
G1 X209.533 Y124.562 E.02395
G1 X209.735 Y125.3 E.02399
G1 X209.782 Y127.1 E.05646
G1 X209.337 Y128.572 E.04822
G1 X208.578 Y129.514 E.03793
G1 X207.6 Y130.153 E.03663
G1 X206.472 Y130.459 E.03665
G1 X46.165 Y131.699 E5.02646
G1 X44.698 Y131.25 E.0481
M73 P5 R29
M73 Q5 S30
G1 X43.754 Y130.484 E.03812
G1 X43.116 Y129.497 E.03685
G1 X42.816 Y128.345 E.03732
G1 X42.858 Y126.502 E.0578
G1 X43.061 Y125.785 E.02336
G1 X43.401 Y125.12 E.02342
G1 X44.023 Y124.401 E.02981
G1 X44.635 Y123.94 E.02402
G1 X46.053 Y123.476 E.04678
M204 S1000
G1 X46.142 Y123.834 F10800
M204 S800
G1 F1200
G1 X206.698 Y122.637 E5.03426
G1 X207.303 Y122.817 E.01979
G1 X207.952 Y123.153 E.02291
G1 X208.864 Y124.078 E.04073
G1 X209.188 Y124.715 E.02241
G1 X209.364 Y125.375 E.02142
G1 X209.405 Y127.078 E.05341
G1 X209.009 Y128.384 E.04279
G1 X208.316 Y129.242 E.03458
G1 X207.421 Y129.82 E.03341
G1 X206.446 Y130.082 E.03165
G1 X46.191 Y131.322 E5.02483
G1 X44.887 Y130.922 E.04277
M73 P6 R29
M73 Q6 S29
G1 X44.028 Y130.223 E.03472
G1 X43.45 Y129.32 E.03362
G1 X43.193 Y128.327 E.03216
G1 X43.228 Y126.579 E.05482
G1 X43.406 Y125.937 E.02089
G1 X43.702 Y125.349 E.02064
G1 X44.294 Y124.664 E.02839
G1 X44.836 Y124.261 E.02118
G1 X46.085 Y123.853 E.0412
M204 S1000
G1 X46.174 Y124.211 F10800
M204 S800
G1 F1200
G1 X206.619 Y123.006 E5.03078
G1 X207.147 Y123.161 E.01725
G1 X207.752 Y123.474 E.02136
G1 X208.542 Y124.276 E.0353
G1 X208.829 Y124.832 E.01962
G1 X208.994 Y125.45 E.02006
G1 X209.027 Y127.056 E.05037
G1 X208.681 Y128.196 E.03735
G1 X208.053 Y128.97 E.03125
G1 X207.292 Y129.465 E.02846
G1 X206.417 Y129.705 E.02845
G1 X46.217 Y130.944 E5.02311
G1 X45.076 Y130.595 E.03741
M73 P7 R29
G1 X44.3 Y129.961 E.03142
G1 X43.807 Y129.194 E.02859
G1 X43.57 Y128.306 E.02882
G1 X43.598 Y126.655 E.05177
G1 X43.752 Y126.089 E.01839
G1 X44.028 Y125.54 E.01927
G1 X44.564 Y124.928 E.02551
G1 X45.034 Y124.582 E.0183
G1 X46.117 Y124.229 E.03571
M204 S1000
G1 X46.206 Y124.588 F10800
M204 S800
G1 F1200
G1 X206.542 Y123.376 E5.02737
G1 X206.99 Y123.504 E.01461
M73 Q7 S29
G1 X207.552 Y123.795 E.01984
G1 X208.22 Y124.474 E.02987
G1 X208.484 Y124.986 E.01806
G1 X208.624 Y125.523 E.0174
G1 X208.65 Y127.032 E.04732
G1 X208.352 Y128.01 E.03206
G1 X207.791 Y128.698 E.02783
G1 X207.161 Y129.11 E.0236
G1 X206.389 Y129.328 E.02515
G1 X46.243 Y130.567 E5.02142
G1 X45.263 Y130.266 E.03214
M73 P7 R28
G1 X44.573 Y129.7 E.02798
G1 X44.162 Y129.065 E.02372
G1 X43.948 Y128.283 E.02542
G1 X43.968 Y126.728 E.04876
G1 X44.098 Y126.241 E.0158
G1 X44.353 Y125.732 E.01785
G1 X44.831 Y125.195 E.02254
G1 X45.231 Y124.905 E.01549
G1 X46.149 Y124.606 E.03027
M204 S1000
G1 X46.238 Y124.965 F10800
M204 S800
G1 F1200
G1 X206.468 Y123.747 E5.02404
G1 X207.352 Y124.116 E.03004
M73 P8 R28
M73 Q8 S29
G1 X207.898 Y124.672 E.02443
G1 X208.138 Y125.139 E.01646
G1 X208.253 Y125.592 E.01465
G1 X208.273 Y127.008 E.0444
G1 X208.022 Y127.825 E.0268
G1 X207.528 Y128.427 E.02442
G1 X207.028 Y128.756 E.01877
G1 X206.359 Y128.952 E.02186
G1 X46.269 Y130.19 E5.01966
G1 X45.449 Y129.937 E.02691
G1 X44.845 Y129.438 E.02456
G1 X44.517 Y128.934 E.01885
G1 X44.325 Y128.259 E.022
G1 X44.339 Y126.799 E.04578
G1 X44.679 Y125.925 E.0294
G1 X45.095 Y125.464 E.01947
G1 X45.425 Y125.229 E.0127
G1 X46.181 Y124.983 E.02493
M204 S1000
G1 X46.27 Y125.341 F10800
M204 S800
G1 F1200
G1 X206.396 Y124.118 E5.02078
G1 X206.681 Y124.193 E.00924
M73 P9 R28
M73 Q9 S28
G1 X207.151 Y124.437 E.0166
G1 X207.576 Y124.87 E.01902
G1 X207.792 Y125.29 E.01481
G1 X207.881 Y125.658 E.01187
G1 X207.895 Y126.982 E.04152
G1 X207.692 Y127.642 E.02165
G1 X207.265 Y128.156 E.02095
G1 X206.891 Y128.404 E.01407
G1 X206.328 Y128.575 E.01845
G1 X46.295 Y129.812 E5.01787
G1 X45.632 Y129.607 E.02176
G1 X45.117 Y129.176 E.02106
G1 X44.87 Y128.799 E.01413
G1 X44.702 Y128.232 E.01854
G1 X44.711 Y126.866 E.04283
G1 X45.003 Y126.119 E.02515
G1 X45.618 Y125.555 E.02616
G1 X46.213 Y125.36 E.01963
M204 S1000
G1 X46.302 Y125.718 F10800
M204 S800
G1 F1200
G1 X206.329 Y124.489 E5.01768
G1 X206.951 Y124.758 E.02125
M73 P10 R28
M73 Q10 S28
G1 X207.253 Y125.068 E.01357
G1 X207.446 Y125.441 E.01317
G1 X207.518 Y126.955 E.04752
G1 X207.36 Y127.463 E.01668
G1 X207.001 Y127.885 E.01737
G1 X206.75 Y128.054 E.00949
G1 X206.295 Y128.198 E.01496
G1 X46.322 Y129.435 E5.01599
G1 X45.812 Y129.275 E.01676
G1 X45.389 Y128.913 E.01746
G1 X45.221 Y128.66 E.00952
G1 X45.079 Y128.203 E.015
G1 X45.139 Y126.689 E.04751
G1 X45.327 Y126.314 E.01315
G1 X45.614 Y126.013 E.01304
G1 X46.247 Y125.742 E.02159
M204 S1000
G1 X46.336 Y126.095 F10800
M204 S800
G1 F1200
G1 X206.384 Y124.888 E5.01834
G1 X206.711 Y125.05 E.01144
M73 P11 R27
G1 X206.933 Y125.269 E.00978
G1 X207.099 Y125.591 E.01136
G1 X207.141 Y126.927 E.04191
G1 X207.024 Y127.29 E.01196
G1 X206.737 Y127.615 E.01359
G1 X206.261 Y127.821 E.01626
G1 X46.35 Y129.058 E5.01405
G1 X45.986 Y128.94 E.012
M73 Q11 S28
G1 X45.66 Y128.65 E.01368
G1 X45.456 Y128.171 E.01632
G1 X45.488 Y126.834 E.04193
G1 X45.649 Y126.512 E.01129
G1 X45.866 Y126.294 E.00964
G1 X46.28 Y126.118 E.0141
M204 S1000
G1 X46.374 Y126.472 F10800
M204 S800
G1 F1200
G1 X206.22 Y125.236 E5.01201
G1 X206.471 Y125.343 E.00856
G1 X206.748 Y125.73 E.01492
G1 X206.763 Y126.895 E.03653
G1 X206.689 Y127.109 E.0071
G1 X206.473 Y127.345 E.01003
G1 X206.223 Y127.444 E.00843
G1 X46.383 Y128.68 E5.01182
G1 X46.168 Y128.605 E.00714
M73 P12 R27
M73 Q12 S28
G1 X45.932 Y128.388 E.01005
G1 X45.833 Y128.135 E.00852
G1 X45.84 Y126.97 E.03653
G1 X46.121 Y126.572 E.01528
G1 X46.318 Y126.494 E.00664
M204 S1000
G1 X46.418 Y126.849 F10800
M204 S800
G1 F1200
G1 X206.236 Y125.641 E5.01112
G1 X206.378 Y125.821 E.00719
M73 Q12 S27
G1 X206.386 Y126.856 E.03245
G1 X206.178 Y127.067 E.00929
G1 X46.422 Y128.303 E5.00919
G1 X46.21 Y128.093 E.00936
M73 P13 R27
M73 Q13 S27
G1 X46.21 Y127.058 E.03245
G1 X46.376 Y126.891 E.00738
M204 S1000
;WIPE_START
G1 F8640
G1 X46.418 Y126.849 E-.01371
G1 X50.689 Y126.817 E-.98629
;WIPE_END
G1 Z.4 F720
G1 X46.988 Y105.748 F10800
G1 Z.2 F720
G1 E1 F2100
M204 S800
G1 F1200
G1 X45.458 Y105.383 E.04932
G1 X44.143 Y104.573 E.04843
G1 X43.566 Y103.96 E.0264
G1 X43.133 Y103.359 E.02323
G1 X42.504 Y101.376 E.06523
G1 X42.556 Y99.211 E.0679
G1 X42.831 Y98.261 E.03101
G1 X43.299 Y97.369 E.03158
G1 X44.005 Y96.546 E.034
G1 X44.828 Y95.906 E.03269
G1 X46.824 Y95.245 E.06593
G1 X207.851 Y94.08 E5.04902
G1 X208.763 Y94.368 E.02999
G1 X209.582 Y94.794 E.02895
G1 X210.989 Y96.23 E.06303
G1 X211.411 Y97.081 E.02978
G1 X211.668 Y98.016 E.0304
G1 X211.725 Y100.031 E.0632
G1 X211.35 Y101.581 E.05
G1 X210.537 Y102.887 E.04823
G1 X209.925 Y103.459 E.02627
G1 X209.327 Y103.888 E.02308
G1 X207.391 Y104.508 E.06374
G1 X47.048 Y105.748 E5.02759
M204 S1000
G1 X47.046 Y105.371 F10800
M73 P14 R26
M204 S800
G1 F1200
G1 X47.008 Y105.371 E.00119
G1 X45.629 Y105.045 E.04443
G1 X44.4 Y104.296 E.04513
G1 X43.456 Y103.164 E.04622
G1 X42.881 Y101.353 E.05958
G1 X42.925 Y99.29 E.0647
G1 X43.174 Y98.417 E.02846
G1 X43.6 Y97.598 E.02895
G1 X44.278 Y96.807 E.03267
G1 X45.032 Y96.224 E.02988
G1 X46.856 Y95.622 E.06022
G1 X207.767 Y94.448 E5.04539
G1 X208.604 Y94.71 E.0275
M73 Q14 S27
G1 X209.381 Y95.115 E.02747
G1 X210.664 Y96.424 E.05747
G1 X211.065 Y97.232 E.02828
G1 X211.299 Y98.093 E.02798
G1 X211.347 Y100.016 E.06031
G1 X211.013 Y101.409 E.04491
G1 X210.261 Y102.629 E.04494
G1 X209.132 Y103.564 E.04596
G1 X207.359 Y104.131 E.05836
G1 X47.106 Y105.37 E5.02477
M204 S1000
G1 X47.103 Y104.993 F10800
M73 P15 R26
M204 S800
G1 F1200
G1 X47.028 Y104.994 E.00235
G1 X45.746 Y104.686 E.04134
G1 X44.657 Y104.02 E.04002
G1 X43.78 Y102.969 E.04292
G1 X43.259 Y101.328 E.05398
G1 X43.295 Y99.369 E.06143
G1 X43.519 Y98.571 E.02599
G1 X43.901 Y97.826 E.02625
G1 X44.551 Y97.067 E.03133
G1 X45.236 Y96.543 E.02704
G1 X46.888 Y95.999 E.05453
G1 X207.683 Y94.817 E5.04175
G1 X208.445 Y95.052 E.025
M73 Q15 S26
G1 X209.181 Y95.436 E.02603
G1 X210.34 Y96.619 E.05193
G1 X210.706 Y97.349 E.0256
G1 X210.929 Y98.169 E.02664
G1 X210.97 Y99.999 E.05739
G1 X210.654 Y101.29 E.04167
G1 X209.986 Y102.371 E.03984
G1 X208.937 Y103.239 E.04269
G1 X207.328 Y103.754 E.05297
G1 X47.163 Y104.993 E5.02201
M204 S1000
G1 X47.16 Y104.616 F10800
M73 P16 R26
M204 S800
G1 F1200
G1 X47.048 Y104.617 E.00351
G1 X45.915 Y104.348 E.03651
G1 X44.914 Y103.742 E.03669
G1 X44.105 Y102.775 E.03953
G1 X43.636 Y101.303 E.04844
G1 X43.665 Y99.445 E.05826
G1 X43.864 Y98.724 E.02345
G1 X44.203 Y98.054 E.02354
G1 X44.824 Y97.328 E.02995
G1 X45.439 Y96.863 E.02417
G1 X46.92 Y96.375 E.04889
G1 X207.601 Y95.186 E5.03818
G1 X208.287 Y95.395 E.02249
M73 Q16 S26
G1 X208.98 Y95.756 E.0245
G1 X210.017 Y96.814 E.04645
G1 X210.36 Y97.501 E.02408
G1 X210.558 Y98.243 E.02408
G1 X210.592 Y99.982 E.05454
G1 X210.317 Y101.119 E.03668
G1 X209.709 Y102.113 E.03653
G1 X208.744 Y102.914 E.03932
G1 X207.297 Y103.377 E.04764
G1 X47.22 Y104.615 E5.01925
M204 S1000
G1 X47.217 Y104.238 F10800
M204 S800
G1 F1200
G1 X47.067 Y104.239 E.0047
G1 X46.083 Y104.009 E.03168
G1 X45.17 Y103.464 E.03334
G1 X44.43 Y102.581 E.03612
G1 X44.014 Y101.277 E.04292
G1 X44.035 Y99.52 E.05509
G1 X44.211 Y98.874 E.02099
G1 X44.505 Y98.281 E.02075
G1 X45.097 Y97.59 E.02853
G1 X45.639 Y97.183 E.02125
G1 X46.952 Y96.752 E.04333
G1 X207.521 Y95.555 E5.03467
G1 X208.129 Y95.738 E.01991
M73 P17 R25
M73 Q17 S26
G1 X208.779 Y96.077 E.02299
G1 X209.693 Y97.01 E.04095
G1 X210.014 Y97.651 E.02248
G1 X210.188 Y98.316 E.02155
G1 X210.215 Y99.964 E.05168
G1 X209.979 Y100.95 E.03179
G1 X209.432 Y101.855 E.03316
G1 X208.551 Y102.589 E.03595
G1 X207.265 Y103 E.04233
G1 X47.277 Y104.238 E5.01646
M204 S1000
G1 X47.274 Y103.861 F10800
M204 S800
G1 F1200
G1 X47.086 Y103.862 E.00589
G1 X46.248 Y103.669 E.02696
G1 X45.426 Y103.186 E.02989
G1 X44.755 Y102.389 E.03267
G1 X44.391 Y101.25 E.03749
G1 X44.406 Y99.593 E.05196
G1 X44.557 Y99.024 E.01846
G1 X44.831 Y98.47 E.01938
G1 X45.367 Y97.854 E.0256
G1 X45.839 Y97.504 E.01842
G1 X46.984 Y97.129 E.03778
G1 X207.441 Y95.925 E5.03116
G1 X207.971 Y96.081 E.01732
M73 P18 R25
M73 Q18 S26
G1 X208.578 Y96.397 E.02146
G1 X209.37 Y97.206 E.0355
G1 X209.655 Y97.767 E.01973
G1 X209.817 Y98.389 E.02015
G1 X209.838 Y99.946 E.04882
G1 X209.64 Y100.783 E.02697
G1 X209.155 Y101.599 E.02976
G1 X208.359 Y102.263 E.0325
G1 X207.234 Y102.624 E.03705
G1 X47.334 Y103.86 E5.0137
M204 S1000
G1 X47.331 Y103.483 F10800
M73 Q18 S25
M204 S800
G1 F1200
G1 X47.105 Y103.485 E.00709
G1 X46.411 Y103.328 E.02231
G1 X45.681 Y102.907 E.02642
G1 X45.081 Y102.197 E.02915
G1 X44.768 Y101.222 E.03211
G1 X44.777 Y99.664 E.04885
G1 X44.904 Y99.173 E.0159
G1 X45.158 Y98.661 E.01792
G1 X45.635 Y98.119 E.02264
G1 X46.036 Y97.827 E.01555
G1 X47.016 Y97.506 E.03233
G1 X207.364 Y96.295 E5.02774
G1 X207.814 Y96.424 E.01468
M73 P19 R25
G1 X208.377 Y96.718 E.01991
G1 X209.047 Y97.403 E.03004
G1 X209.309 Y97.918 E.01812
G1 X209.446 Y98.459 E.0175
G1 X209.46 Y99.927 E.04603
G1 X209.299 Y100.618 E.02225
G1 X208.877 Y101.342 E.02628
G1 X208.169 Y101.937 E.029
