; generated by PrusaSlicer 2.9.5 on 2026-06-01 at 13:35:16 UTC


;
;
; 

; external perimeters extrusion width = 0.45mm
; perimeters extrusion width = 0.45mm
; infill extrusion width = 0.45mm
; solid infill extrusion width = 0.45mm
; top infill extrusion width = 0.40mm
; first layer extrusion width = 0.42mm

; external perimeters extrusion width = 0.45mm
; perimeters extrusion width = 0.45mm
; infill extrusion width = 0.45mm
; solid infill extrusion width = 0.45mm
; top infill extrusion width = 0.40mm
; first layer extrusion width = 0.42mm

; external perimeters extrusion width = 0.45mm
; perimeters extrusion width = 0.45mm
; infill extrusion width = 0.45mm
; solid infill extrusion width = 0.45mm
; top infill extrusion width = 0.40mm
; first layer extrusion width = 0.42mm

; external perimeters extrusion width = 0.45mm
; perimeters extrusion width = 0.45mm
; infill extrusion width = 0.45mm
; solid infill extrusion width = 0.45mm
; top infill extrusion width = 0.40mm
; first layer extrusion width = 0.42mm

; external perimeters extrusion width = 0.45mm
; perimeters extrusion width = 0.45mm
; infill extrusion width = 0.45mm
; solid infill extrusion width = 0.45mm
; top infill extrusion width = 0.40mm
; first layer extrusion width = 0.42mm

; external perimeters extrusion width = 0.45mm
; perimeters extrusion width = 0.45mm
; infill extrusion width = 0.45mm
; solid infill extrusion width = 0.45mm
; top infill extrusion width = 0.40mm
; first layer extrusion width = 0.42mm

; external perimeters extrusion width = 0.45mm
; perimeters extrusion width = 0.45mm
; infill extrusion width = 0.45mm
; solid infill extrusion width = 0.45mm
; top infill extrusion width = 0.40mm
; first layer extrusion width = 0.42mm

; external perimeters extrusion width = 0.45mm
; perimeters extrusion width = 0.45mm
; infill extrusion width = 0.45mm
; solid infill extrusion width = 0.45mm
; top infill extrusion width = 0.40mm
; first layer extrusion width = 0.42mm

; external perimeters extrusion width = 0.45mm
; perimeters extrusion width = 0.45mm
; infill extrusion width = 0.45mm
; solid infill extrusion width = 0.45mm
; top infill extrusion width = 0.40mm
; first layer extrusion width = 0.42mm

M73 P0 R178
M73 Q0 S181
M201 X1000 Y1000 Z200 E5000 ; sets maximum accelerations, mm/sec^2
M203 X200 Y200 Z12 E120 ; sets maximum feedrates, mm / sec
M204 S1250 T1250 ; sets acceleration (S) and retract acceleration (R), mm/sec^2
M205 X8.00 Y8.00 Z0.40 E4.50 ; sets the jerk limits, mm/sec
M205 S0 T0 ; sets the minimum extruding and travel feed rate, mm/sec

; printing object bara_vert.stl id:6 copy 0
; stop printing object bara_vert.stl id:6 copy 0
; printing object bara_vert.stl id:2 copy 0
; stop printing object bara_vert.stl id:2 copy 0
; printing object bara_vert.stl id:5 copy 0
; stop printing object bara_vert.stl id:5 copy 0
; printing object bara_vert.stl id:0 copy 0
; stop printing object bara_vert.stl id:0 copy 0
; printing object bara_vert.stl id:1 copy 0
; stop printing object bara_vert.stl id:1 copy 0
; printing object bara_vert.stl id:3 copy 0
; stop printing object bara_vert.stl id:3 copy 0
; printing object bara_vert.stl id:4 copy 0
; stop printing object bara_vert.stl id:4 copy 0
; printing object bara_vert.stl id:7 copy 0
; stop printing object bara_vert.stl id:7 copy 0
; printing object bara_vert.stl id:8 copy 0
; stop printing object bara_vert.stl id:8 copy 0

;TYPE:Custom
M862.3 P "MK3S" ; printer model check
M862.1 P0.4 ; nozzle diameter check
M115 U3.14.1 ; tell printer latest fw version
G90 ; use absolute coordinates
M83 ; extruder relative mode
M104 S250 ; set extruder temp
M140 S85 ; set bed temp
M190 S85 ; wait for bed temp
M109 S250 ; wait for extruder temp
G28 W ; home all without mesh bed level
G80 X11.5143 Y5.85721 W234.335 H201.165 ; mesh bed levelling

G1 Z0.2 F720
G1 Y-3 F1000 ; go outside print area
G92 E0
G1 X60 E9 F1000 ; intro line
G1 X100 E12.5 F1000 ; intro line

G92 E0
M221 S95

; Don't change E values below. Excessive value can damage the printer.
M907 E430 ; set extruder motor current
G21 ; set units to millimeters
G90 ; use absolute coordinates
M83 ; use relative distances for extrusion

M900 K0.08 ; Filament gcode LA 1.5
M900 K45 ; Filament gcode LA 1.0




M107
;LAYER_CHANGE
;Z:0.2
;HEIGHT:0.2
G1 E-1 F2100
M73 Q0 S180
G1 Z.4 F720
G1 X71.596 Y93.552 F10800
G1 Z.2 F720
G1 E1 F2100
M204 S800
;TYPE:Skirt/Brim
;WIDTH:0.42
G1 F1200
G1 X185.374 Y6.477 E4.49226
G1 X186.98 Y6.044 E.05215
G1 X191.197 Y6.581 E.13329
G1 X191.881 Y6.785 E.02238
G1 X202.072 Y11.755 E.3555
G1 X202.807 Y12.337 E.0294
G1 X233.612 Y50.026 E1.52622
G1 X240.817 Y59.364 E.36981
G1 X245.379 Y67.064 E.28062
G1 X245.662 Y68.471 E.045
G1 X245.089 Y72.684 E.13331
G1 X244.255 Y74.123 E.05215
G1 X77.971 Y202.053 E6.57816
G1 X72.183 Y206.414 E.22723
M73 P0 R177
G1 X70.571 Y206.835 E.05224
G1 X66.411 Y206.269 E.13164
G1 X65.104 Y205.592 E.04615
G1 X35.474 Y173.772 E1.36326
G1 X15.551 Y150.119 E.96965
G1 X12.136 Y145.668 E.1759
G1 X11.701 Y144.06 E.05223
G1 X12.231 Y139.895 E.13164
G1 X13.055 Y138.446 E.05226
G1 X18.765 Y133.984 E.22721
G1 X71.548 Y93.589 E2.08401
M204 S1000
;WIPE_START
G1 F8640
G1 X71.596 Y93.552 E-.01399
G1 X74.987 Y90.957 E-.98601
;WIPE_END
G1 Z.4 F720
G1 X35.277 Y142.718 F10800
G1 Z.2 F720
G1 E1 F2100
M204 S800
G1 F1200
G1 X36.841 Y144.8 E.08165
G1 X37.255 Y145.763 E.03287
G1 X37.468 Y147.083 E.04192
G1 X37.305 Y148.407 E.04183
G1 X36.903 Y149.447 E.03496
G1 X35.955 Y150.698 E.04921
G1 X35.241 Y151.249 E.02828
G1 X36.862 Y151.415 E.05109
G1 X37.948 Y151.799 E.03612
G1 X39.317 Y152.813 E.05342
G1 X40.837 Y154.821 E.07896
G1 X41.295 Y155.859 E.03557
G1 X41.507 Y157.123 E.04019
G1 X41.346 Y158.503 E.04356
G1 X40.867 Y159.768 E.04241
G1 X41.408 Y159.722 E.01702
G1 X42.422 Y159.843 E.03202
G1 X43.51 Y160.229 E.0362
G1 X44.834 Y161.203 E.05154
G1 X46.415 Y163.286 E.08199
G1 X46.852 Y164.288 E.03427
G1 X47.064 Y165.555 E.04028
G1 X47.032 Y165.997 E.01389
G1 X48.172 Y165.55 E.03839
G1 X49.183 Y165.443 E.03188
G1 X50.234 Y165.554 E.03314
G1 X51.413 Y165.975 E.03925
G1 X52.652 Y166.885 E.0482
G1 X54.273 Y169.009 E.08378
G1 X54.709 Y170.012 E.03429
G1 X54.922 Y171.382 E.04347
G1 X54.759 Y172.651 E.04012
G1 X54.455 Y173.482 E.02774
G1 X55.309 Y173.399 E.0269
G1 X56.401 Y173.528 E.03448
G1 X57.444 Y173.901 E.03473
G1 X58.694 Y174.798 E.04824
G1 X60.382 Y177.003 E.08707
G1 X60.795 Y177.965 E.03283
G1 X61.001 Y179.133 E.03719
G1 X61.554 Y178.934 E.01843
G1 X62.503 Y178.842 E.02989
G1 X63.55 Y178.953 E.03301
G1 X64.731 Y179.375 E.03932
G1 X66.015 Y180.331 E.05019
G1 X67.702 Y182.607 E.08883
G1 X68.056 Y183.515 E.03056
G1 X68.204 Y184.375 E.02736
G1 X68.758 Y184.584 E.01857
G1 X69.875 Y185.371 E.04284
G1 X71.686 Y187.718 E.09295
G1 X72.109 Y188.766 E.03543
G1 X72.281 Y189.885 E.0355
G1 X72.109 Y191.312 E.04507
G1 X71.996 Y191.642 E.01094
G1 X73.136 Y192.046 E.03792
G1 X74.426 Y192.983 E.04999
G1 X76.097 Y195.193 E.08687
G1 X76.51 Y196.203 E.03421
G1 X76.695 Y197.426 E.03878
G1 X76.522 Y198.791 E.04314
G1 X76.131 Y199.788 E.03358
G1 X75.106 Y201.115 E.05257
G1 X71.818 Y203.549 E.12827
G1 X70.753 Y203.982 E.03605
G1 X69.703 Y204.152 E.03335
G1 X68.181 Y203.975 E.04804
G1 X67.195 Y203.582 E.03328
G1 X66.11 Y202.791 E.0421
G1 X64.441 Y200.633 E.08554
G1 X63.998 Y199.609 E.03498
G1 X63.793 Y198.421 E.0378
G1 X63.948 Y197 E.04482
G1 X64.103 Y196.548 E.01498
G1 X63.721 Y196.484 E.01214
G1 X62.88 Y196.157 E.02829
G1 X61.674 Y195.288 E.04661
G1 X59.99 Y193.087 E.08689
G1 X59.586 Y192.136 E.0324
G1 X59.404 Y191.16 E.03113
G1 X58.792 Y190.914 E.02068
G1 X57.75 Y190.184 E.03989
G1 X56.043 Y188.032 E.08612
G1 X55.544 Y186.923 E.03813
G1 X55.331 Y185.789 E.03618
G1 X53.951 Y186.011 E.04383
G1 X52.535 Y185.843 E.04471
G1 X51.638 Y185.51 E.03
G1 X50.347 Y184.573 E.05002
G1 X48.729 Y182.447 E.08377
G1 X48.298 Y181.425 E.03478
G1 X48.11 Y180.39 E.03298
G1 X48.26 Y178.861 E.04817
G1 X48.592 Y177.953 E.03031
G1 X47.933 Y178.054 E.0209
G1 X46.408 Y177.877 E.04814
G1 X45.425 Y177.487 E.03316
G1 X44.381 Y176.736 E.04032
G1 X42.673 Y174.543 E.08715
G1 X42.239 Y173.559 E.03372
G1 X42.023 Y172.433 E.03595
G1 X42.076 Y171.778 E.0206
G1 X41.209 Y172.138 E.02943
G1 X40.069 Y172.333 E.03626
G1 X38.548 Y172.155 E.04802
G1 X37.608 Y171.787 E.03165
G1 X36.485 Y170.977 E.04341
G1 X34.814 Y168.819 E.08558
G1 X34.357 Y167.756 E.03628
G1 X34.165 Y166.661 E.03486
G1 X34.329 Y165.136 E.04809
G1 X34.789 Y163.935 E.04032
G1 X33.043 Y163.74 E.05508
G1 X32.011 Y163.338 E.03473
G1 X30.928 Y162.549 E.04201
G1 X29.282 Y160.433 E.08406
G1 X28.813 Y159.371 E.0364
G1 X28.608 Y158.236 E.03616
G1 X28.772 Y156.711 E.04809
G1 X29.139 Y155.754 E.03214
G1 X30.05 Y154.512 E.04829
G1 X30.884 Y153.843 E.03352
G1 X29.05 Y153.655 E.05781
G1 X28.014 Y153.265 E.03471
G1 X26.849 Y152.415 E.04522
G1 X25.242 Y150.336 E.08239
G1 X24.786 Y149.316 E.03503
G1 X24.568 Y148.139 E.03753
G1 X24.737 Y146.502 E.0516
G1 X22.409 Y148.23 E.0909
G1 X21.424 Y148.643 E.03349
G1 X20.397 Y148.834 E.03275
G1 X18.763 Y148.661 E.05152
G1 X17.78 Y148.271 E.03316
G1 X16.659 Y147.445 E.04366
G1 X15.051 Y145.366 E.08241
G1 X14.582 Y144.304 E.0364
G1 X14.377 Y143.168 E.03619
G1 X14.53 Y141.69 E.04659
G1 X14.884 Y140.731 E.03205
G1 X15.854 Y139.409 E.05141
G1 X18.942 Y136.987 E.12305
G1 X20.424 Y136.361 E.05044
G1 X21.621 Y136.228 E.03776
G1 X22.671 Y136.357 E.03317
G1 X23.668 Y136.707 E.03313
G1 X25.086 Y137.747 E.05514
G1 X26.606 Y139.754 E.07894
G1 X27.05 Y140.747 E.03411
G1 X27.276 Y142.056 E.04165
G1 X27.104 Y143.547 E.04706
G1 X29.177 Y141.932 E.08239
G1 X30.668 Y141.318 E.05056
G1 X31.772 Y141.198 E.03482
G1 X32.823 Y141.318 E.03317
G1 X33.86 Y141.678 E.03442
G1 X35.228 Y142.682 E.0532
M204 S1000
G1 X34.992 Y142.967 F10800
M204 S800
G1 F1200
G1 X36.504 Y144.972 E.07874
G1 X36.886 Y145.847 E.02994
G1 X37.091 Y147.116 E.0403
G1 X36.935 Y148.335 E.03853
G1 X36.562 Y149.284 E.03197
G1 X35.672 Y150.446 E.04589
G1 X33.843 Y151.814 E.07161
G1 X34.005 Y152.102 E.01036
G1 X34.826 Y151.774 E.02772
G1 X35.789 Y151.672 E.03036
G1 X36.759 Y151.778 E.03059
G1 X37.749 Y152.121 E.03285
G1 X39.033 Y153.063 E.04993
G1 X40.523 Y155.031 E.0774
G1 X40.927 Y155.944 E.0313
G1 X41.13 Y157.158 E.03859
G1 X40.974 Y158.433 E.04027
G1 X40.627 Y159.337 E.03036
G1 X39.953 Y160.245 E.03546
G1 X41.385 Y160.099 E.04513
G1 X42.356 Y160.214 E.03066
G1 X43.356 Y160.574 E.03332
G1 X44.551 Y161.453 E.04651
G1 X46.08 Y163.459 E.07908
G1 X46.484 Y164.374 E.03136
G1 X46.687 Y165.587 E.03856
G1 X46.569 Y166.591 E.0317
G1 X48.238 Y165.922 E.05638
G1 X49.202 Y165.82 E.03039
G1 X50.171 Y165.926 E.03056
G1 X51.212 Y166.295 E.03463
G1 X52.406 Y167.172 E.04645
G1 X53.959 Y169.218 E.08054
G1 X54.354 Y170.138 E.03139
G1 X54.545 Y171.36 E.03878
G1 X54.388 Y172.581 E.0386
G1 X54.066 Y173.439 E.02873
G1 X53.821 Y173.779 E.01314
G1 X53.99 Y174.001 E.00875
G1 X54.323 Y173.878 E.01113
G1 X55.288 Y173.776 E.03043
G1 X56.298 Y173.891 E.03187
G1 X57.247 Y174.223 E.03152
G1 X58.451 Y175.088 E.04648
G1 X60.045 Y177.173 E.08229
G1 X60.44 Y178.092 E.03136
G1 X60.629 Y179.206 E.03543
G1 X60.589 Y179.696 E.01541
G1 X61.617 Y179.306 E.03447
G1 X62.52 Y179.219 E.02844
G1 X63.447 Y179.316 E.02922
G1 X64.529 Y179.695 E.03595
G1 X65.767 Y180.616 E.04838
G1 X67.383 Y182.809 E.08541
G1 X67.696 Y183.631 E.02758
G1 X67.869 Y184.655 E.03256
G1 X68.564 Y184.909 E.0232
G1 X69.595 Y185.625 E.03936
G1 X71.371 Y187.927 E.09116
G1 X71.75 Y188.884 E.03227
G1 X71.904 Y189.914 E.03265
G1 X71.738 Y191.24 E.0419
G1 X71.467 Y191.963 E.02421
G1 X71.943 Y192.024 E.01505
G1 X72.939 Y192.368 E.03304
G1 X74.143 Y193.234 E.0465
G1 X75.781 Y195.401 E.08517
G1 X76.141 Y196.284 E.0299
G1 X76.318 Y197.407 E.03565
G1 X76.161 Y198.678 E.04015
G1 X75.815 Y199.581 E.03032
G1 X74.861 Y200.827 E.0492
G1 X71.613 Y203.231 E.1267
G1 X70.669 Y203.614 E.03194
G1 X69.718 Y203.774 E.03024
G1 X68.295 Y203.614 E.0449
G1 X67.397 Y203.263 E.03023
G1 X66.354 Y202.502 E.04048
G1 X64.755 Y200.422 E.08226
G1 X64.353 Y199.481 E.03208
G1 X64.171 Y198.435 E.03329
G1 X64.321 Y197.066 E.04318
G1 X64.624 Y196.234 E.02776
G1 X63.833 Y196.123 E.02504
G1 X63.078 Y195.835 E.02534
G1 X61.955 Y195.036 E.04321
G1 X60.327 Y192.918 E.08376
G1 X59.942 Y192.009 E.03095
G1 X59.738 Y190.885 E.03582
G1 X58.989 Y190.592 E.02522
G1 X57.989 Y189.892 E.03827
G1 X56.354 Y187.818 E.08281
G1 X55.898 Y186.791 E.03523
G1 X55.715 Y185.789 E.03194
G1 X55.766 Y185.157 E.01988
G1 X55.022 Y185.46 E.02519
G1 X53.969 Y185.633 E.03346
G1 X52.603 Y185.471 E.04313
G1 X51.795 Y185.167 E.02707
G1 X50.63 Y184.323 E.04511
G1 X49.044 Y182.239 E.08211
G1 X48.654 Y181.3 E.03188
G1 X48.486 Y180.35 E.03025
G1 X48.633 Y178.925 E.04492
G1 X48.957 Y178.061 E.02893
G1 X49.401 Y177.423 E.02437
G1 X47.946 Y177.676 E.04631
G1 X46.521 Y177.516 E.04496
G1 X45.626 Y177.167 E.03012
G1 X44.624 Y176.445 E.03872
G1 X43.008 Y174.368 E.08251
G1 X42.605 Y173.467 E.03095
G1 X42.399 Y172.391 E.03435
G1 X42.537 Y171.026 E.04302
G1 X42.029 Y171.386 E.01952
G1 X41.121 Y171.771 E.03092
G1 X40.085 Y171.955 E.03299
G1 X38.617 Y171.783 E.04634
G1 X37.769 Y171.446 E.02861
G1 X36.767 Y170.724 E.03872
G1 X35.127 Y168.607 E.08396
G1 X34.724 Y167.667 E.03207
G1 X34.543 Y166.674 E.03165
G1 X34.701 Y165.2 E.04648
G1 X35.015 Y164.383 E.02744
G1 X35.793 Y163.306 E.04166
G1 X34.532 Y163.528 E.04015
G1 X33.155 Y163.379 E.04343
G1 X32.213 Y163.018 E.03163
G1 X31.172 Y162.26 E.04038
G1 X29.595 Y160.22 E.08085
G1 X29.18 Y159.28 E.03222
G1 X28.986 Y158.247 E.03296
G1 X29.134 Y156.821 E.04495
G1 X29.459 Y155.956 E.02897
G1 X30.339 Y154.757 E.04663
G1 X32.134 Y153.348 E.07155
G1 X31.968 Y153.064 E.01031
G1 X31.527 Y153.247 E.01497
G1 X30.546 Y153.429 E.03128
G1 X29.114 Y153.283 E.04513
G1 X28.173 Y152.922 E.0316
G1 X27.131 Y152.163 E.04042
G1 X25.554 Y150.124 E.08082
G1 X25.139 Y149.184 E.03222
G1 X24.946 Y148.15 E.03298
G1 X25.093 Y146.724 E.04495
G1 X25.416 Y145.863 E.02883
G1 X25.19 Y145.693 E.00887
G1 X22.24 Y147.892 E.11537
G1 X21.335 Y148.276 E.03082
G1 X20.355 Y148.458 E.03125
G1 X18.876 Y148.301 E.04663
G1 X17.982 Y147.951 E.0301
G1 X16.94 Y147.193 E.0404
G1 X15.363 Y145.153 E.08085
G1 X14.948 Y144.213 E.03222
G1 X14.755 Y143.179 E.03298
G1 X14.902 Y141.753 E.04495
G1 X15.228 Y140.888 E.02898
G1 X16.107 Y139.689 E.04661
G1 X19.154 Y137.3 E.1214
G1 X20.544 Y136.72 E.04722
G1 X21.598 Y136.605 E.03324
G1 X22.566 Y136.72 E.03056
G1 X23.517 Y137.053 E.03159
G1 X24.801 Y137.996 E.04995
G1 X26.291 Y139.964 E.0774
G1 X26.696 Y140.877 E.03132
G1 X26.899 Y142.09 E.03856
G1 X26.743 Y143.366 E.04031
G1 X26.418 Y144.215 E.0285
G1 X26.649 Y144.385 E.00899
G1 X29.345 Y142.271 E.10742
G1 X30.786 Y141.678 E.04886
G1 X31.789 Y141.576 E.03161
G1 X32.757 Y141.69 E.03056
G1 X33.708 Y142.024 E.0316
G1 X34.944 Y142.931 E.04807
M204 S1000
;WIPE_START
G1 F8640
G1 X34.992 Y142.967 E-.01385
G1 X36.504 Y144.972 E-.57985
G1 X36.886 Y145.847 E-.22045
G1 X37.015 Y146.641 E-.18585
;WIPE_END
G1 Z.4 F720
G1 X53.142 Y174.758 F10800
G1 Z.2 F720
G1 E1 F2100
M204 S800
G1 F1200
G1 X54.392 Y174.25 E.04231
G1 X55.307 Y174.153 E.02885
G1 X56.196 Y174.254 E.02805
G1 X57.05 Y174.546 E.0283
G1 X58.209 Y175.378 E.04473
G1 X59.708 Y177.345 E.07754
G1 X60.072 Y178.179 E.02853
M73 Q0 S179
G1 X60.253 Y179.239 E.03372
G1 X60.13 Y180.282 E.03293
G1 X61.68 Y179.679 E.05215
G1 X62.537 Y179.597 E.02699
G1 X63.385 Y179.689 E.02674
G1 X64.329 Y180.016 E.03132
G1 X65.481 Y180.864 E.04485
G1 X67.041 Y182.969 E.08215
G1 X67.328 Y183.713 E.025
G1 X67.482 Y184.63 E.02915
G1 X67.464 Y184.914 E.00892
G1 X68.371 Y185.233 E.03015
G1 X69.356 Y185.918 E.03762
G1 X71.031 Y188.092 E.08605
G1 X71.381 Y188.962 E.0294
G1 X71.527 Y189.944 E.03113
G1 X71.368 Y191.167 E.03867
G1 X71.086 Y191.895 E.02448
G1 X70.829 Y192.276 E.01441
G1 X71.842 Y192.388 E.03196
G1 X72.789 Y192.716 E.03142
G1 X73.898 Y193.522 E.04299
G1 X75.442 Y195.568 E.08037
G1 X75.772 Y196.365 E.02705
G1 X75.941 Y197.439 E.03409
G1 X75.79 Y198.608 E.03696
G1 X75.498 Y199.375 E.02573
G1 X74.614 Y200.541 E.04588
G1 X71.408 Y202.914 E.12506
G1 X70.584 Y203.246 E.02785
G1 X69.731 Y203.396 E.02716
