; generated by PrusaSlicer 2.9.5 on 2026-06-01 at 13:20:00 UTC


;
;
; 

; external perimeters extrusion width = 0.45mm
; perimeters extrusion width = 0.45mm
; infill extrusion width = 0.45mm
; solid infill extrusion width = 0.45mm
; top infill extrusion width = 0.40mm
; first layer extrusion width = 0.42mm

; external perimeters extrusion width = 0.45mm
; perimeters extrusion width = 0.45mm
; infill extrusion width = 0.45mm
; solid infill extrusion width = 0.45mm
; top infill extrusion width = 0.40mm
; first layer extrusion width = 0.42mm

; external perimeters extrusion width = 0.45mm
; perimeters extrusion width = 0.45mm
; infill extrusion width = 0.45mm
; solid infill extrusion width = 0.45mm
; top infill extrusion width = 0.40mm
; first layer extrusion width = 0.42mm

M73 P0 R113
M73 Q0 S114
M201 X1000 Y1000 Z200 E5000 ; sets maximum accelerations, mm/sec^2
M203 X200 Y200 Z12 E120 ; sets maximum feedrates, mm / sec
M204 S1250 T1250 ; sets acceleration (S) and retract acceleration (R), mm/sec^2
M205 X8.00 Y8.00 Z0.40 E4.50 ; sets the jerk limits, mm/sec
M205 S0 T0 ; sets the minimum extruding and travel feed rate, mm/sec

; printing object cerc_sup.stl_1 id:0 copy 0
; stop printing object cerc_sup.stl_1 id:0 copy 0
; printing object cerc_sup.stl_3 id:1 copy 0
; stop printing object cerc_sup.stl_3 id:1 copy 0
; printing object cerc_sup.stl_2 id:2 copy 0
; stop printing object cerc_sup.stl_2 id:2 copy 0

;TYPE:Custom
M862.3 P "MK3S" ; printer model check
M862.1 P0.4 ; nozzle diameter check
M115 U3.14.1 ; tell printer latest fw version
G90 ; use absolute coordinates
M83 ; extruder relative mode
M104 S250 ; set extruder temp
M140 S85 ; set bed temp
M190 S85 ; wait for bed temp
M109 S250 ; wait for extruder temp
G28 W ; home all without mesh bed level
G80 X5.73183 Y1.97585 W246.367 H205.08 ; mesh bed levelling

G1 Z0.2 F720
G1 Y-3 F1000 ; go outside print area
G92 E0
G1 X60 E9 F1000 ; intro line
G1 X100 E12.5 F1000 ; intro line

G92 E0
M221 S95

; Don't change E values below. Excessive value can damage the printer.
M907 E430 ; set extruder motor current
G21 ; set units to millimeters
G90 ; use absolute coordinates
M83 ; use relative distances for extrusion

M900 K0.08 ; Filament gcode LA 1.5
M900 K45 ; Filament gcode LA 1.0




M107
;LAYER_CHANGE
;Z:0.2
;HEIGHT:0.2
G1 E-1 F2100
G1 Z.4 F720
G1 X20.372 Y10.837 F10800
G1 Z.2 F720
G1 E1 F2100
M204 S800
;TYPE:Skirt/Brim
;WIDTH:0.42
G1 F1200
G1 X23.337 Y5.263 E.19796
G1 X24.308 Y4.387 E.041
G1 X25.083 Y4.191 E.02506
G1 X56.852 Y2.164 E.99812
G1 X58.077 Y2.448 E.03943
G1 X249.036 Y111.537 E6.8955
G1 X249.926 Y112.495 E.041
M73 Q0 S113
G1 X250.125 Y113.187 E.02258
G1 X251.912 Y128.708 E.48986
G1 X251.911 Y129.214 E.01587
G1 X249.201 Y152.295 E.72866
G1 X248.797 Y153.328 E.03478
G1 X248.441 Y153.817 E.01896
G1 X244.345 Y158.909 E.2049
G1 X240.009 Y163.798 E.20489
G1 X235.441 Y168.471 E.20489
G1 X230.653 Y172.918 E.20489
G1 X225.656 Y177.129 E.20489
G1 X220.461 Y181.093 E.20489
G1 X215.081 Y184.802 E.20489
G1 X209.528 Y188.246 E.20488
G1 X203.815 Y191.418 E.20489
G1 X197.955 Y194.31 E.20489
G1 X191.963 Y196.916 E.20487
G1 X185.852 Y199.23 E.20488
G1 X179.637 Y201.245 E.20485
G1 X173.331 Y202.958 E.20489
G1 X166.95 Y204.364 E.20487
G1 X160.509 Y205.46 E.20486
G1 X153.917 Y206.254 E.20818
G1 X147.399 Y206.718 E.20488
G1 X140.867 Y206.867 E.20486
G1 X134.336 Y206.7 E.20484
G1 X127.82 Y206.218 E.20486
G1 X121.335 Y205.421 E.20486
G1 X114.896 Y204.312 E.20486
G1 X108.519 Y202.893 E.20484
G1 X102.217 Y201.168 E.20486
G1 X96.006 Y199.14 E.20486
G1 X89.901 Y196.815 E.20483
G1 X83.915 Y194.197 E.20485
G1 X78.063 Y191.293 E.20484
M73 P0 R112
G1 X72.357 Y188.109 E.20488
G1 X66.813 Y184.654 E.20482
G1 X61.441 Y180.934 E.20488
G1 X56.256 Y176.959 E.20485
G1 X51.348 Y172.809 E.20153
G1 X46.567 Y168.356 E.20485
G1 X42.007 Y163.678 E.20483
G1 X37.679 Y158.784 E.20484
G1 X33.591 Y153.687 E.20486
G1 X29.755 Y148.398 E.20486
G1 X26.179 Y142.93 E.20485
G1 X22.871 Y137.296 E.20485
G1 X19.793 Y131.413 E.20818
G1 X17.049 Y125.483 E.20487
G1 X14.632 Y119.527 E.20154
G1 X13.573 Y116.513 E.10017
G1 X12.436 Y113.261 E.10802
G1 X10.606 Y107.099 E.20155
G1 X9.047 Y100.754 E.20486
G1 X7.797 Y94.34 E.20489
G1 X6.846 Y87.769 E.20818
G1 X6.233 Y81.37 E.20155
G1 X6.034 Y77.204 E.13077
G1 X5.92 Y74.737 E.07743
G1 X5.928 Y68.308 E.20158
G1 X6.257 Y61.677 E.20817
G1 X6.885 Y55.279 E.20157
G1 X7.834 Y48.813 E.20491
G1 X9.095 Y42.402 E.20486
G1 X10.692 Y35.956 E.20822
G1 X12.537 Y29.798 E.20156
G1 X14.477 Y24.298 E.18286
G1 X17.18 Y17.585 E.2269
G1 X19.985 Y11.566 E.20821
G1 X20.344 Y10.89 E.024
M204 S1000
;WIPE_START
G1 F8640
G1 X20.372 Y10.837 E-.01384
G1 X22.378 Y7.067 E-.98616
;WIPE_END
G1 Z.4 F720
; printing object cerc_sup.stl_3 id:1 copy 0
G1 X61.128 Y7.618 F10800
G1 Z.2 F720
G1 E1 F2100
M204 S800
;TYPE:Perimeter
;WIDTH:0.419999
G1 F1200
G1 X59.429 Y10.689 E.11004
G1 X56.935 Y15.842 E.1795
G1 X54.726 Y21.123 E.17948
G1 X52.809 Y26.517 E.17949
G1 X51.19 Y32.008 E.17949
G1 X49.873 Y37.579 E.17949
G1 X48.862 Y43.213 E.17947
G1 X48.16 Y48.895 E.17951
G1 X47.769 Y54.606 E.17948
G1 X47.691 Y60.33 E.17949
G1 X47.804 Y63.091 E.08664
G1 X47.926 Y66.05 E.09286
G1 X48.472 Y71.748 E.17947
G1 X49.329 Y77.408 E.17949
G1 X50.494 Y83.013 E.1795
G1 X51.963 Y88.546 E.17949
G1 X53.786 Y94.128 E.18412
G1 X55.796 Y99.329 E.17483
G1 X58.148 Y104.548 E.17949
G1 X60.782 Y109.631 E.1795
G1 X63.689 Y114.562 E.17948
G1 X66.862 Y119.327 E.1795
G1 X70.289 Y123.912 E.17948
G1 X73.963 Y128.303 E.17951
G1 X77.87 Y132.486 E.17947
G1 X82 Y136.45 E.17949
G1 X86.34 Y140.183 E.17949
G1 X90.878 Y143.673 E.1795
G1 X95.599 Y146.91 E.17948
G1 X100.49 Y149.884 E.17948
G1 X105.537 Y152.586 E.1795
G1 X110.723 Y155.01 E.17949
G1 X116.034 Y157.146 E.17949
G1 X120.948 Y158.817 E.16274
G1 X121.465 Y158.992 E.01711
G1 X126.977 Y160.536 E.17948
G1 X132.565 Y161.776 E.17947
G1 X138.212 Y162.709 E.17946
G1 X143.892 Y163.332 E.17916
G1 X149.608 Y163.645 E.17949
G1 X155.333 Y163.645 E.1795
G1 X161.049 Y163.332 E.17949
G1 X166.739 Y162.708 E.17948
G1 X172.387 Y161.774 E.17949
G1 X177.975 Y160.532 E.17948
G1 X183.487 Y158.988 E.17948
G1 X188.907 Y157.145 E.1795
G1 X194.218 Y155.008 E.1795
G1 X199.404 Y152.585 E.17948
G1 X204.45 Y149.882 E.17948
G1 X209.341 Y146.907 E.17949
G1 X214.063 Y143.67 E.1795
G1 X218.6 Y140.18 E.17947
G1 X222.94 Y136.447 E.17949
G1 X227.07 Y132.483 E.17949
G1 X230.977 Y128.3 E.17947
G1 X234.65 Y123.909 E.17949
G1 X238.078 Y119.324 E.1795
G1 X241.25 Y114.559 E.17948
G1 X243.033 Y111.534 E.1101
G1 X246.877 Y113.73 E.13881
G1 X245.823 Y115.575 E.06662
G1 X242.674 Y120.463 E.18231
G1 X239.269 Y125.177 E.18233
G1 X235.618 Y129.703 E.18233
G1 X231.732 Y134.028 E.1823
G1 X227.621 Y138.14 E.18231
G1 X223.297 Y142.027 E.1823
G1 X218.772 Y145.679 E.18232
G1 X214.06 Y149.085 E.1823
G1 X209.172 Y152.235 E.18233
G1 X204.124 Y155.121 E.18232
G1 X198.93 Y157.734 E.1823
G1 X193.604 Y160.066 E.1823
G1 X188.161 Y162.112 E.18232
G1 X182.617 Y163.866 E.18232
G1 X176.988 Y165.321 E.18229
G1 X171.289 Y166.476 E.18232
G1 X165.536 Y167.325 E.18233
G1 X159.747 Y167.866 E.1823
G1 X153.937 Y168.099 E.18231
G1 X148.123 Y168.023 E.18231
G1 X142.321 Y167.637 E.18232
G1 X136.548 Y166.943 E.18231
G1 X130.82 Y165.942 E.18232
G1 X125.154 Y164.638 E.1823
G1 X119.565 Y163.035 E.1823
G1 X114.069 Y161.136 E.18232
G1 X108.682 Y158.947 E.18232
G1 X103.419 Y156.475 E.18231
G1 X98.295 Y153.726 E.18232
G1 X93.325 Y150.709 E.1823
G1 X88.522 Y147.431 E.18232
M73 P1 R112
M73 Q1 S113
G1 X83.901 Y143.902 E.18231
G1 X79.474 Y140.132 E.18232
G1 X75.254 Y136.132 E.18231
G1 X71.253 Y131.913 E.18231
G1 X67.396 Y127.375 E.18674
G1 X63.952 Y122.867 E.17787
G1 X60.673 Y118.065 E.18232
G1 X57.654 Y113.096 E.1823
G1 X54.903 Y107.972 E.18235
G1 X52.43 Y102.71 E.1823
G1 X50.24 Y97.324 E.1823
G1 X48.339 Y91.829 E.18231
G1 X46.734 Y86.24 E.18232
G1 X45.429 Y80.574 E.1823
G1 X44.427 Y74.846 E.18232
M73 Q1 S112
G1 X43.731 Y69.073 E.18232
G1 X43.344 Y63.272 E.18229
G1 X43.265 Y57.458 E.18231
G1 X43.497 Y51.648 E.18231
G1 X44.037 Y45.858 E.18233
G1 X44.885 Y40.106 E.1823
G1 X46.037 Y34.406 E.18233
G1 X47.492 Y28.777 E.18229
G1 X49.243 Y23.232 E.18232
G1 X51.288 Y17.789 E.18231
G1 X53.619 Y12.462 E.18231
G1 X56.231 Y7.267 E.18232
G1 X57.285 Y5.422 E.06662
G1 X61.076 Y7.588 E.1369
M204 S1000
G1 X61.638 Y7.475 F10800
M204 S800
;TYPE:External perimeter
G1 F1200
G1 X59.764 Y10.863 E.1214
G1 X57.279 Y15.997 E.17884
G1 X55.078 Y21.259 E.17884
G1 X53.168 Y26.634 E.17885
G1 X51.554 Y32.105 E.17885
G1 X50.242 Y37.656 E.17884
G1 X49.235 Y43.27 E.17883
G1 X48.535 Y48.931 E.17885
G1 X48.146 Y54.621 E.17882
G1 X48.068 Y60.325 E.17886
G1 X48.302 Y66.024 E.17884
G1 X48.847 Y71.702 E.17885
G1 X49.701 Y77.341 E.17882
G1 X50.861 Y82.926 E.17885
G1 X52.325 Y88.439 E.17885
G1 X54.141 Y94.001 E.18345
G1 X56.144 Y99.184 E.17422
G1 X58.488 Y104.384 E.17884
G1 X61.112 Y109.448 E.17883
G1 X64.009 Y114.362 E.17886
G1 X67.17 Y119.11 E.17884
G1 X70.585 Y123.678 E.17883
G1 X74.245 Y128.053 E.17885
G1 X78.138 Y132.221 E.17882
G1 X82.254 Y136.171 E.17887
G1 X86.578 Y139.89 E.17882
G1 X91.1 Y143.367 E.17885
G1 X95.804 Y146.593 E.17884
G1 X100.678 Y149.556 E.17884
G1 X105.706 Y152.249 E.17884
G1 X110.873 Y154.664 E.17883
G1 X116.165 Y156.792 E.17884
G1 X121.069 Y158.46 E.16241
G1 X121.569 Y158.63 E.01656
G1 X127.061 Y160.168 E.17882
G1 X132.629 Y161.405 E.17884
G1 X138.257 Y162.335 E.17885
G1 X143.923 Y162.957 E.17872
G1 X149.618 Y163.268 E.17883
G1 X155.322 Y163.268 E.17884
G1 X161.018 Y162.956 E.17886
G1 X166.687 Y162.334 E.17881
G1 X170.479 Y161.707 E.12051
G1 X172.315 Y161.403 E.05835
G1 X177.883 Y160.166 E.17884
G1 X183.376 Y158.627 E.17886
G1 X188.776 Y156.791 E.17883
G1 X194.068 Y154.662 E.17885
G1 X199.235 Y152.247 E.17883
G1 X204.263 Y149.554 E.17884
G1 X209.137 Y146.591 E.17884
G1 X213.841 Y143.365 E.17884
G1 X218.362 Y139.888 E.17883
G1 X222.687 Y136.168 E.17887
M73 P1 R111
G1 X226.802 Y132.218 E.17884
G1 X230.695 Y128.05 E.17882
G1 X234.354 Y123.675 E.17883
G1 X237.77 Y119.106 E.17887
G1 X240.93 Y114.358 E.17883
G1 X242.897 Y111.023 E.1214
G1 X247.391 Y113.59 E.16227
G1 X246.145 Y115.771 E.07876
G1 X242.985 Y120.676 E.18295
G1 X239.569 Y125.406 E.18294
G1 X235.906 Y129.947 E.18293
G1 X232.006 Y134.287 E.18295
G1 X227.881 Y138.414 E.18295
G1 X223.542 Y142.315 E.18295
G1 X219.001 Y145.979 E.18295
G1 X214.272 Y149.397 E.18295
G1 X209.368 Y152.558 E.18294
G1 X204.303 Y155.453 E.18292
G1 X199.09 Y158.075 E.18296
G1 X193.746 Y160.416 E.18293
G1 X188.284 Y162.469 E.18295
G1 X182.721 Y164.228 E.18294
G1 X177.072 Y165.689 E.18295
G1 X171.354 Y166.847 E.18292
G1 X165.582 Y167.699 E.18294
G1 X159.772 Y168.243 E.18296
G1 X153.942 Y168.477 E.18294
G1 X148.108 Y168.4 E.18294
G1 X142.286 Y168.012 E.18295
G1 X136.493 Y167.316 E.18294
G1 X130.746 Y166.312 E.18292
G1 X125.06 Y165.004 E.18294
G1 X119.451 Y163.394 E.18297
G1 X113.936 Y161.489 E.18294
G1 X108.531 Y159.293 E.18292
G1 X103.25 Y156.812 E.18294
G1 X98.108 Y154.054 E.18295
G1 X93.121 Y151.026 E.18293
G1 X88.302 Y147.737 E.18293
G1 X83.664 Y144.195 E.18298
G1 X79.222 Y140.413 E.18292
G1 X74.987 Y136.399 E.18295
G1 X70.972 Y132.165 E.18295
G1 X67.103 Y127.612 E.18734
G1 X63.646 Y123.088 E.17852
G1 X60.356 Y118.269 E.18295
G1 X57.326 Y113.283 E.18294
G1 X54.566 Y108.142 E.18295
G1 X52.084 Y102.862 E.18293
G1 X49.887 Y97.457 E.18293
G1 X47.98 Y91.942 E.18296
G1 X46.369 Y86.334 E.18295
G1 X45.059 Y80.649 E.18292
G1 X44.054 Y74.901 E.18296
G1 X43.356 Y69.108 E.18295
G1 X42.967 Y63.287 E.18292
G1 X42.888 Y57.453 E.18294
G1 X43.12 Y51.623 E.18294
G1 X43.663 Y45.813 E.18296
G1 X44.513 Y40.041 E.18293
G1 X45.67 Y34.322 E.18295
G1 X47.129 Y28.673 E.18293
G1 X48.887 Y23.109 E.18296
G1 X50.938 Y17.647 E.18293
G1 X53.278 Y12.302 E.18295
G1 X55.898 Y7.089 E.18293
G1 X57.144 Y4.907 E.07878
G1 X61.586 Y7.445 E.16041
M204 S1000
;WIPE_START
G1 F8640
G1 X61.638 Y7.475 E-.01386
G1 X59.764 Y10.863 E-.894
G1 X59.59 Y11.222 E-.09214
;WIPE_END
G1 Z.4 F720
G1 X244.881 Y112.764 F10800
G1 Z.2 F720
G1 E1 F2100
M204 S800
;TYPE:Solid infill
;WIDTH:0.420059
G1 F1200
G1 X246.267 Y114.15 E.06147
G1 X246.073 Y114.49 E.01228
G1 X244.093 Y112.509 E.08783
G1 X243.148 Y111.97 E.03412
G1 X243.101 Y112.05 E.00291
G1 X245.88 Y114.829 E.12324
G1 X245.686 Y115.169 E.01228
G1 X242.903 Y112.386 E.12342
G1 X242.705 Y112.721 E.0122
G1 X245.487 Y115.504 E.1234
G1 X245.278 Y115.828 E.01209
G1 X242.507 Y113.057 E.12289
G1 X242.309 Y113.392 E.0122
G1 X245.069 Y116.153 E.12242
G1 X244.86 Y116.477 E.01209
G1 X242.111 Y113.728 E.12191
G1 X241.914 Y114.063 E.01219
G1 X244.651 Y116.801 E.1214
G1 X244.442 Y117.126 E.01212
G1 X241.716 Y114.399 E.12092
G1 X241.518 Y114.734 E.0122
G1 X244.234 Y117.45 E.12045
G1 X244.025 Y117.774 E.01209
G1 X241.305 Y115.055 E.12061
G1 X241.092 Y115.375 E.01205
G1 X243.816 Y118.099 E.12081
G1 X243.607 Y118.423 E.01209
G1 X240.878 Y115.695 E.12101
G1 X240.665 Y116.015 E.01205
G1 X243.398 Y118.748 E.1212
G1 X243.189 Y119.072 E.01209
G1 X240.452 Y116.336 E.12136
G1 X240.239 Y116.656 E.01205
G1 X242.98 Y119.396 E.12154
G1 X242.771 Y119.721 E.01212
G1 X240.026 Y116.976 E.12174
G1 X239.813 Y117.296 E.01205
G1 X242.562 Y120.045 E.12191
G1 X242.349 Y120.366 E.01208
G1 X239.6 Y117.616 E.12194
G1 X239.386 Y117.937 E.0121
G1 X242.125 Y120.675 E.12145
G1 X241.902 Y120.985 E.01198
G1 X239.173 Y118.257 E.12101
G1 X238.96 Y118.577 E.01205
G1 X241.678 Y121.295 E.12054
G1 X241.454 Y121.604 E.01197
G1 X238.747 Y118.897 E.12005
G1 X238.534 Y119.217 E.01205
G1 X241.23 Y121.914 E.11959
G1 X241.007 Y122.224 E.01198
G1 X238.319 Y119.535 E.11923
G1 X238.09 Y119.841 E.01199
G1 X240.783 Y122.533 E.11941
G1 X240.559 Y122.843 E.01199
G1 X237.862 Y120.146 E.11961
G1 X237.634 Y120.451 E.01194
G1 X240.336 Y123.153 E.11983
G1 X240.112 Y123.462 E.01197
G1 X237.406 Y120.756 E.12001
G1 X237.178 Y121.062 E.01197
G1 X239.888 Y123.772 E.12018
G1 X239.665 Y124.082 E.01198
G1 X236.95 Y121.367 E.12041
G1 X236.722 Y121.672 E.01194
G1 X239.441 Y124.391 E.12058
G1 X239.217 Y124.701 E.01199
G1 X236.494 Y121.977 E.12078
G1 X236.266 Y122.283 E.01197
G1 X238.992 Y125.009 E.12089
G1 X238.754 Y125.305 E.01191
G1 X236.037 Y122.588 E.1205
G1 X235.809 Y122.893 E.01194
G1 X238.516 Y125.6 E.12005
G1 X238.278 Y125.895 E.01189
G1 X235.581 Y123.198 E.11961
G1 X235.353 Y123.504 E.01197
G1 X238.04 Y126.19 E.11914
G1 X237.802 Y126.486 E.01191
G1 X235.125 Y123.809 E.11872
G1 X234.896 Y124.113 E.01194
G1 X237.564 Y126.781 E.11832
G1 X237.325 Y127.076 E.01191
G1 X234.653 Y124.403 E.11852
G1 X234.41 Y124.694 E.01189
G1 X237.087 Y127.371 E.11872
G1 X236.849 Y127.666 E.01189
G1 X234.167 Y124.984 E.11894
G1 X233.924 Y125.275 E.01189
G1 X236.611 Y127.962 E.11916
G1 X236.373 Y128.257 E.01189
G1 X233.681 Y125.565 E.11939
G1 X233.438 Y125.856 E.01189
G1 X236.135 Y128.552 E.11959
G1 X235.897 Y128.847 E.01189
G1 X233.195 Y126.146 E.11981
G1 X232.953 Y126.437 E.01187
G1 X235.659 Y129.143 E.12001
G1 X235.42 Y129.438 E.01191
G1 X232.71 Y126.727 E.12021
G1 X232.467 Y127.018 E.01189
G1 X235.171 Y129.722 E.11992
G1 X234.918 Y130.002 E.01183
G1 X232.224 Y127.308 E.11948
G1 X231.981 Y127.598 E.01186
G1 X234.666 Y130.283 E.11908
G1 X234.413 Y130.564 E.01186
G1 X231.738 Y127.889 E.11863
G1 X231.495 Y128.179 E.01186
G1 X234.161 Y130.845 E.11823
G1 X233.909 Y131.126 E.01184
G1 X231.252 Y128.47 E.11781
G1 X230.997 Y128.748 E.01183
G1 X233.656 Y131.407 E.11792
G1 X233.404 Y131.688 E.01184
G1 X230.74 Y129.024 E.11814
G1 X230.482 Y129.3 E.01185
G1 X233.151 Y131.969 E.11837
G1 X232.899 Y132.25 E.01184
G1 X230.224 Y129.575 E.11863
G1 X229.967 Y129.851 E.01183
G1 X232.646 Y132.531 E.11883
G1 X232.394 Y132.812 E.01184
G1 X229.709 Y130.127 E.11908
G1 X229.452 Y130.403 E.01183
G1 X232.142 Y133.093 E.1193
G1 X231.889 Y133.374 E.01186
G1 X229.194 Y130.679 E.11952
G1 X228.937 Y130.954 E.0118
G1 X231.637 Y133.654 E.11974
G1 X231.499 Y133.807 E.00646
G1 X231.378 Y133.929 E.00539
G1 X228.679 Y131.23 E.1197
G1 X228.422 Y131.506 E.01183
G1 X231.111 Y134.196 E.11928
G1 X230.845 Y134.462 E.0118
G1 X228.164 Y131.782 E.11888
G1 X227.906 Y132.058 E.01185
G1 X230.578 Y134.729 E.11848
