; generated by PrusaSlicer 2.9.5 on 2026-06-04 at 20:30:32 UTC


;
;
; 

; external perimeters extrusion width = 0.45mm
; perimeters extrusion width = 0.45mm
; infill extrusion width = 0.45mm
; solid infill extrusion width = 0.45mm
; top infill extrusion width = 0.40mm
; first layer extrusion width = 0.42mm

; external perimeters extrusion width = 0.45mm
; perimeters extrusion width = 0.45mm
; infill extrusion width = 0.45mm
; solid infill extrusion width = 0.45mm
; top infill extrusion width = 0.40mm
; first layer extrusion width = 0.42mm

; external perimeters extrusion width = 0.45mm
; perimeters extrusion width = 0.45mm
; infill extrusion width = 0.45mm
; solid infill extrusion width = 0.45mm
; top infill extrusion width = 0.40mm
; first layer extrusion width = 0.42mm

; external perimeters extrusion width = 0.45mm
; perimeters extrusion width = 0.45mm
; infill extrusion width = 0.45mm
; solid infill extrusion width = 0.45mm
; top infill extrusion width = 0.40mm
; first layer extrusion width = 0.42mm

; external perimeters extrusion width = 0.45mm
; perimeters extrusion width = 0.45mm
; infill extrusion width = 0.45mm
; solid infill extrusion width = 0.45mm
; top infill extrusion width = 0.40mm
; first layer extrusion width = 0.42mm

; external perimeters extrusion width = 0.45mm
; perimeters extrusion width = 0.45mm
; infill extrusion width = 0.45mm
; solid infill extrusion width = 0.45mm
; top infill extrusion width = 0.40mm
; first layer extrusion width = 0.42mm

; external perimeters extrusion width = 0.45mm
; perimeters extrusion width = 0.45mm
; infill extrusion width = 0.45mm
; solid infill extrusion width = 0.45mm
; top infill extrusion width = 0.40mm
; first layer extrusion width = 0.42mm

; external perimeters extrusion width = 0.45mm
; perimeters extrusion width = 0.45mm
; infill extrusion width = 0.45mm
; solid infill extrusion width = 0.45mm
; top infill extrusion width = 0.40mm
; first layer extrusion width = 0.42mm

; external perimeters extrusion width = 0.45mm
; perimeters extrusion width = 0.45mm
; infill extrusion width = 0.45mm
; solid infill extrusion width = 0.45mm
; top infill extrusion width = 0.40mm
; first layer extrusion width = 0.42mm

; external perimeters extrusion width = 0.45mm
; perimeters extrusion width = 0.45mm
; infill extrusion width = 0.45mm
; solid infill extrusion width = 0.45mm
; top infill extrusion width = 0.40mm
; first layer extrusion width = 0.42mm

; external perimeters extrusion width = 0.45mm
; perimeters extrusion width = 0.45mm
; infill extrusion width = 0.45mm
; solid infill extrusion width = 0.45mm
; top infill extrusion width = 0.40mm
; first layer extrusion width = 0.42mm

; external perimeters extrusion width = 0.45mm
; perimeters extrusion width = 0.45mm
; infill extrusion width = 0.45mm
; solid infill extrusion width = 0.45mm
; top infill extrusion width = 0.40mm
; first layer extrusion width = 0.42mm

M73 P0 R152
M73 Q0 S156
M201 X1000 Y1000 Z200 E5000 ; sets maximum accelerations, mm/sec^2
M203 X200 Y200 Z12 E120 ; sets maximum feedrates, mm / sec
M204 S1250 T1250 ; sets acceleration (S) and retract acceleration (R), mm/sec^2
M205 X8.00 Y8.00 Z0.40 E4.50 ; sets the jerk limits, mm/sec
M205 S0 T0 ; sets the minimum extruding and travel feed rate, mm/sec

; printing object bara_vert_mic.stl id:1 copy 0
; stop printing object bara_vert_mic.stl id:1 copy 0
; printing object bara_32cm_mic.stl id:0 copy 0
; stop printing object bara_32cm_mic.stl id:0 copy 0
; printing object bara_vert_mic.stl id:4 copy 0
; stop printing object bara_vert_mic.stl id:4 copy 0
; printing object bara_vert_mic.stl id:7 copy 0
; stop printing object bara_vert_mic.stl id:7 copy 0
; printing object bara_vert_mic.stl id:3 copy 0
; stop printing object bara_vert_mic.stl id:3 copy 0
; printing object bara_vert_mic.stl id:2 copy 0
; stop printing object bara_vert_mic.stl id:2 copy 0
; printing object bara_vert_mic.stl id:5 copy 0
; stop printing object bara_vert_mic.stl id:5 copy 0
; printing object bara_vert_mic.stl id:6 copy 0
; stop printing object bara_vert_mic.stl id:6 copy 0
; printing object bara_vert_mic.stl id:10 copy 0
; stop printing object bara_vert_mic.stl id:10 copy 0
; printing object bara_vert_mic.stl id:8 copy 0
; stop printing object bara_vert_mic.stl id:8 copy 0
; printing object bara_vert_mic.stl id:9 copy 0
; stop printing object bara_vert_mic.stl id:9 copy 0
; printing object bara_vert_mic.stl id:11 copy 0
; stop printing object bara_vert_mic.stl id:11 copy 0

;TYPE:Custom
M862.3 P "MK3S" ; printer model check
M862.1 P0.4 ; nozzle diameter check
M115 U3.14.1 ; tell printer latest fw version
G90 ; use absolute coordinates
M83 ; extruder relative mode
M104 S250 ; set extruder temp
M140 S85 ; set bed temp
M190 S85 ; wait for bed temp
M109 S250 ; wait for extruder temp
G28 W ; home all without mesh bed level
G80 X13.1774 Y13.8069 W229.582 H184.332 ; mesh bed levelling

G1 Z0.2 F720
G1 Y-3 F1000 ; go outside print area
G92 E0
G1 X60 E9 F1000 ; intro line
G1 X100 E12.5 F1000 ; intro line

G92 E0
M221 S95

; Don't change E values below. Excessive value can damage the printer.
M907 E430 ; set extruder motor current
G21 ; set units to millimeters
G90 ; use absolute coordinates
M83 ; use relative distances for extrusion

M900 K0.08 ; Filament gcode LA 1.5
M900 K45 ; Filament gcode LA 1.0




M107
;LAYER_CHANGE
;Z:0.2
;HEIGHT:0.2
G1 E-1 F2100
G1 Z.4 F720
G1 X15.815 Y15.815 F10800
G1 Z.2 F720
G1 E1 F2100
M204 S800
;TYPE:Skirt/Brim
;WIDTH:0.42
G1 F1200
G1 X16.994 Y14.636 E.05228
G1 X18.542 Y13.995 E.05253
G1 X230.767 Y13.995 E6.65417
G1 X232.314 Y14.636 E.0525
G1 X235.302 Y17.624 E.13249
G1 X235.936 Y18.998 E.04745
G1 X238.817 Y55.319 E1.1424
G1 X242.044 Y97.564 E1.32842
M73 P0 R151
G1 X242.569 Y111.429 E.43504
G1 X242.26 Y187.833 E2.39561
G1 X241.611 Y189.379 E.05257
G1 X238.589 Y192.369 E.13329
G1 X237.106 Y193.001 E.05054
G1 X44.627 Y197.949 E6.03704
G1 X39.109 Y197.905 E.17302
M73 Q0 S155
G1 X37.574 Y197.258 E.05223
G1 X34.616 Y194.278 E.13165
G1 X33.998 Y193.002 E.04445
G1 X13.382 Y24.662 E5.31762
G1 X13.366 Y19.172 E.17214
G1 X14.007 Y17.624 E.05253
G1 X15.773 Y15.858 E.07831
M204 S1000
;WIPE_START
G1 F8640
G1 X15.815 Y15.815 E-.01388
G1 X16.994 Y14.636 E-.385
G1 X18.542 Y13.995 E-.38687
G1 X19.47 Y13.995 E-.21425
;WIPE_END
G1 Z.4 F720
G1 X188.628 Y182.117 F10800
G1 Z.2 F720
G1 E1 F2100
M204 S800
G1 F1200
G1 X190.147 Y180.681 E.06554
G1 X191.069 Y180.269 E.03166
G1 X192.085 Y180.048 E.0326
G1 X235.925 Y179.767 E1.3746
G1 X236.881 Y180.077 E.03151
G1 X237.795 Y180.586 E.0328
G1 X239.012 Y181.856 E.05515
G1 X239.492 Y182.808 E.03343
G1 X239.751 Y183.828 E.033
G1 X239.788 Y186.051 E.06971
G1 X239.404 Y187.6 E.05004
G1 X238.574 Y188.913 E.0487
G1 X237.95 Y189.485 E.02654
G1 X237.341 Y189.912 E.02332
G1 X235.376 Y190.511 E.06441
G1 X192.148 Y190.093 E1.35545
G1 X190.675 Y189.702 E.04778
G1 X189.352 Y188.841 E.04949
G1 X188.401 Y187.664 E.04744
G1 X187.802 Y185.728 E.06354
G1 X187.88 Y183.879 E.05803
G1 X188.17 Y182.962 E.03016
G1 X188.6 Y182.17 E.02826
M204 S1000
G1 X188.93 Y182.351 F10800
M204 S800
G1 F1200
G1 X188.945 Y182.324 E.00097
G1 X190.33 Y181.012 E.05982
G1 X191.204 Y180.622 E.03001
G1 X192.144 Y180.421 E.03014
G1 X235.839 Y180.135 E1.37006
G1 X236.714 Y180.416 E.02882
G1 X237.587 Y180.901 E.03131
G1 X238.689 Y182.052 E.04996
G1 X239.132 Y182.921 E.03058
G1 X239.38 Y183.899 E.03164
G1 X239.41 Y186.033 E.06692
G1 X239.068 Y187.426 E.04497
G1 X238.301 Y188.653 E.04537
G1 X237.15 Y189.586 E.04646
G1 X235.351 Y190.133 E.05896
G1 X192.176 Y189.716 E1.35378
G1 X190.803 Y189.346 E.04459
G1 X189.614 Y188.569 E.04453
G1 X188.727 Y187.472 E.04423
G1 X188.172 Y185.649 E.05975
G1 X188.247 Y183.969 E.05273
G1 X188.524 Y183.094 E.02878
G1 X188.901 Y182.403 E.02468
M204 S1000
G1 X189.227 Y182.577 F10800
M204 S800
G1 F1200
G1 X189.228 Y182.574 E.0001
G1 X190.514 Y181.343 E.05582
G1 X191.339 Y180.974 E.02834
G1 X192.203 Y180.794 E.02767
G1 X235.754 Y180.504 E1.36554
G1 X236.548 Y180.755 E.02611
G1 X237.379 Y181.217 E.02981
G1 X238.365 Y182.248 E.04473
G1 X238.786 Y183.073 E.02904
G1 X239.008 Y183.968 E.02891
G1 X239.033 Y186.012 E.06409
G1 X238.71 Y187.305 E.04179
G1 X238.027 Y188.392 E.04025
G1 X236.959 Y189.259 E.04313
G1 X235.326 Y189.756 E.05352
G1 X192.203 Y189.339 E1.35215
G1 X190.982 Y189.013 E.03962
G1 X189.876 Y188.296 E.04133
G1 X189.053 Y187.281 E.04097
G1 X188.55 Y185.632 E.05406
G1 X188.614 Y184.057 E.04942
G1 X188.865 Y183.254 E.02638
G1 X189.199 Y182.63 E.02219
M204 S1000
G1 X189.53 Y182.809 F10800
M204 S800
G1 F1200
G1 X189.546 Y182.78 E.00104
G1 X190.699 Y181.673 E.05012
G1 X191.437 Y181.339 E.0254
G1 X192.262 Y181.167 E.02642
G1 X235.67 Y180.873 E1.36106
G1 X236.382 Y181.094 E.02337
G1 X237.171 Y181.533 E.02831
G1 X238.043 Y182.445 E.03956
G1 X238.425 Y183.186 E.02614
G1 X238.637 Y184.038 E.02753
G1 X238.656 Y185.992 E.06127
G1 X238.374 Y187.132 E.03682
G1 X237.753 Y188.132 E.03691
G1 X236.769 Y188.932 E.03976
G1 X235.3 Y189.379 E.04814
G1 X192.231 Y188.962 E1.35046
G1 X191.11 Y188.658 E.03642
G1 X190.138 Y188.024 E.03639
G1 X189.38 Y187.09 E.03772
G1 X188.928 Y185.614 E.0484
G1 X188.982 Y184.145 E.04609
G1 X189.22 Y183.384 E.025
G1 X189.502 Y182.861 E.01863
M204 S1000
G1 X189.829 Y183.032 F10800
M204 S800
G1 F1200
G1 X189.832 Y183.027 E.00018
G1 X190.885 Y182.003 E.04605
G1 X191.573 Y181.692 E.02367
G1 X192.318 Y181.54 E.02384
G1 X235.588 Y181.242 E1.35673
G1 X236.216 Y181.434 E.02059
G1 X236.962 Y181.849 E.02677
G1 X237.72 Y182.642 E.0344
G1 X238.08 Y183.338 E.02457
G1 X238.265 Y184.105 E.02474
G1 X238.278 Y185.972 E.05854
G1 X238.037 Y186.961 E.03192
G1 X237.478 Y187.872 E.03351
G1 X236.581 Y188.604 E.0363
G1 X235.275 Y189.001 E.0428
G1 X192.258 Y188.585 E1.34883
G1 X191.289 Y188.325 E.03146
G1 X190.399 Y187.751 E.03321
G1 X189.707 Y186.901 E.03437
G1 X189.305 Y185.595 E.04284
G1 X189.35 Y184.232 E.04276
G1 X189.562 Y183.542 E.02263
G1 X189.801 Y183.086 E.01614
M204 S1000
G1 X190.119 Y183.273 F10800
M204 S800
G1 F1200
G1 X191.071 Y182.332 E.04197
G1 X191.709 Y182.044 E.02195
G1 X192.339 Y181.917 E.02015
G1 X235.507 Y181.611 E1.35354
G1 X236.052 Y181.774 E.01784
G1 X236.754 Y182.164 E.02518
G1 X237.397 Y182.839 E.02923
G1 X237.734 Y183.49 E.02298
G1 X237.893 Y184.169 E.02187
G1 X237.901 Y185.951 E.05587
G1 X237.699 Y186.792 E.02712
G1 X237.203 Y187.613 E.03007
G1 X236.393 Y188.276 E.03282
G1 X235.25 Y188.624 E.03746
G1 X192.287 Y188.208 E1.34714
G1 X191.418 Y187.969 E.02826
M73 P0 R150
G1 X190.661 Y187.478 E.02829
G1 X190.034 Y186.712 E.03104
G1 X189.683 Y185.574 E.03734
G1 X189.718 Y184.318 E.0394
G1 X190.098 Y183.329 E.03322
M204 S1000
G1 X190.44 Y183.472 F10800
M204 S800
G1 F1200
G1 X191.259 Y182.66 E.03616
G1 X191.807 Y182.409 E.0189
G1 X192.361 Y182.294 E.01774
G1 X235.429 Y181.981 E1.3504
G1 X235.887 Y182.114 E.01495
G1 X236.546 Y182.48 E.02364
G1 X237.076 Y183.038 E.02413
G1 X237.372 Y183.6 E.01992
G1 X237.521 Y184.234 E.02042
G1 X237.524 Y185.929 E.05315
G1 X237.359 Y186.625 E.02243
G1 X236.927 Y187.354 E.02657
G1 X236.206 Y187.948 E.02929
G1 X235.225 Y188.247 E.03216
G1 X192.317 Y187.832 E1.34541
G1 X191.549 Y187.614 E.02503
G1 X190.922 Y187.206 E.02345
G1 X190.362 Y186.524 E.02767
G1 X190.061 Y185.551 E.03193
G1 X190.086 Y184.404 E.03597
G1 X190.419 Y183.529 E.02935
M204 S1000
G1 X190.76 Y183.674 F10800
M204 S800
G1 F1200
G1 X191.45 Y182.987 E.03053
G1 X191.908 Y182.772 E.01586
G1 X192.383 Y182.671 E.01523
G1 X235.354 Y182.351 E1.34736
G1 X235.724 Y182.455 E.01205
G1 X236.337 Y182.795 E.02198
G1 X236.754 Y183.236 E.01903
G1 X237.027 Y183.753 E.01833
G1 X237.149 Y184.296 E.01745
G1 X237.147 Y185.908 E.05054
G1 X237.019 Y186.461 E.0178
G1 X236.651 Y187.096 E.02301
G1 X236.021 Y187.618 E.02565
G1 X235.199 Y187.869 E.02695
G1 X192.347 Y187.455 E1.34366
G1 X191.682 Y187.261 E.02172
G1 X191.185 Y186.934 E.01865
M73 P1 R150
G1 X190.691 Y186.338 E.02427
G1 X190.438 Y185.526 E.02667
G1 X190.454 Y184.489 E.03252
G1 X190.739 Y183.73 E.02542
M204 S1000
G1 X191.078 Y183.878 F10800
M204 S800
G1 F1200
G1 X191.642 Y183.313 E.02503
G1 X192.407 Y183.048 E.02538
G1 X235.282 Y182.722 E1.34435
G1 X235.567 Y182.798 E.00925
M73 Q1 S155
G1 X236.088 Y183.08 E.01858
G1 X236.434 Y183.437 E.01559
G1 X236.681 Y183.906 E.01662
G1 X236.772 Y184.316 E.01317
G1 X236.77 Y185.887 E.04926
G1 X236.676 Y186.302 E.01334
G1 X236.373 Y186.839 E.01933
G1 X235.838 Y187.288 E.0219
G1 X235.174 Y187.492 E.02178
G1 X192.378 Y187.078 E1.3419
G1 X191.819 Y186.909 E.01831
M73 Q1 S154
G1 X191.447 Y186.663 E.01398
G1 X191.021 Y186.153 E.02084
G1 X190.815 Y185.499 E.0215
G1 X190.823 Y184.573 E.02904
G1 X191.058 Y183.934 E.02135
M204 S1000
G1 X191.394 Y184.085 F10800
M204 S800
G1 F1200
G1 X191.835 Y183.639 E.01967
G1 X192.43 Y183.424 E.01984
G1 X235.215 Y183.093 E1.34153
G1 X235.839 Y183.365 E.02134
G1 X236.142 Y183.678 E.01366
G1 X236.333 Y184.054 E.01322
G1 X236.395 Y184.335 E.00902
G1 X236.393 Y185.867 E.04803
G1 X236.332 Y186.147 E.00899
G1 X236.094 Y186.583 E.01557
G1 X235.658 Y186.955 E.01797
G1 X235.148 Y187.115 E.01676
G1 X192.411 Y186.701 E1.34005
G1 X191.96 Y186.558 E.01483
G1 X191.71 Y186.391 E.00943
G1 X191.352 Y185.972 E.01728
G1 X191.192 Y185.469 E.01655
G1 X191.192 Y184.656 E.02549
G1 X191.374 Y184.142 E.0171
M204 S1000
G1 X191.687 Y184.328 F10800
M204 S800
G1 F1200
G1 X192.029 Y183.964 E.01566
G1 X192.452 Y183.801 E.01421
G1 X235.27 Y183.492 E1.34256
G1 X235.598 Y183.656 E.0115
G1 X235.821 Y183.877 E.00984
G1 X235.986 Y184.202 E.01143
G1 X236.016 Y185.848 E.05162
G1 X235.814 Y186.329 E.01636
G1 X235.485 Y186.62 E.01377
G1 X235.12 Y186.737 E.01202
G1 X192.447 Y186.325 E1.33804
G1 X191.973 Y186.12 E.01619
G1 X191.687 Y185.798 E.0135
G1 X191.569 Y185.438 E.01188
G1 X191.569 Y184.688 E.02352
G1 X191.668 Y184.385 E.00999
M204 S1000
G1 X192.022 Y184.511 F10800
M204 S800
G1 F1200
G1 X192.227 Y184.287 E.00952
G1 X192.472 Y184.178 E.00841
G1 X235.105 Y183.84 E1.33677
G1 X235.357 Y183.948 E.0086
G1 X235.634 Y184.339 E.01502
G1 X235.639 Y185.83 E.04675
G1 X235.53 Y186.077 E.00847
G1 X235.303 Y186.285 E.00965
G1 X235.089 Y186.36 E.00711
G1 X192.485 Y185.948 E1.33588
G1 X192.236 Y185.849 E.0084
G1 X192.021 Y185.615 E.00996
G1 X191.946 Y185.403 E.00705
G1 X191.946 Y184.723 E.02132
G1 X192.001 Y184.567 E.00519
M204 S1000
G1 X192.323 Y184.764 F10800
M204 S800
G1 F1200
G1 X192.531 Y184.555 E.00925
G1 X235.122 Y184.246 E1.33545
G1 X235.263 Y184.427 E.00719
G1 X235.262 Y185.773 E.0422
G1 X235.05 Y185.982 E.00933
G1 X192.53 Y185.571 E1.33325
G1 X192.323 Y185.362 E.00922
G1 X192.323 Y184.824 E.01687
M204 S1000
;WIPE_START
G1 F8640
G1 X192.323 Y184.764 E-.01385
G1 X192.531 Y184.555 E-.06809
G1 X196.507 Y184.526 E-.91806
;WIPE_END
G1 Z.4 F720
G1 X192.424 Y174.397 F10800
G1 Z.2 F720
G1 E1 F2100
M204 S800
G1 F1200
G1 X187.797 Y174.352 E.14508
G1 X186.324 Y173.962 E.04778
G1 X185.001 Y173.101 E.04949
G1 X184.049 Y171.923 E.04749
G1 X183.451 Y169.987 E.06353
G1 X183.529 Y168.138 E.05803
G1 X183.819 Y167.221 E.03016
G1 X184.277 Y166.376 E.03014
G1 X185.796 Y164.94 E.06554
G1 X186.718 Y164.528 E.03166
G1 X187.734 Y164.307 E.0326
G1 X231.574 Y164.027 E1.3746
G1 X232.53 Y164.337 E.03151
G1 X233.444 Y164.845 E.03279
G1 X234.661 Y166.115 E.05515
G1 X235.141 Y167.067 E.03343
G1 X235.4 Y168.088 E.03303
G1 X235.436 Y170.311 E.06971
G1 X235.053 Y171.859 E.05
G1 X234.223 Y173.173 E.04873
G1 X233.599 Y173.745 E.02654
G1 X232.99 Y174.171 E.0233
G1 X231.025 Y174.77 E.06441
G1 X192.484 Y174.397 E1.20848
M204 S1000
G1 X192.488 Y174.02 F10800
M204 S800
G1 F1200
G1 X187.825 Y173.975 E.14621
G1 X186.452 Y173.606 E.04458
G1 X185.263 Y172.829 E.04453
G1 X184.376 Y171.732 E.04423
G1 X183.821 Y169.909 E.05975
G1 X183.896 Y168.228 E.05276
G1 X184.173 Y167.353 E.02878
G1 X184.594 Y166.583 E.02752
G1 X185.979 Y165.271 E.05982
G1 X186.853 Y164.881 E.03001
G1 X187.793 Y164.68 E.03014
G1 X231.488 Y164.395 E1.37006
G1 X232.363 Y164.676 E.02882
G1 X233.236 Y165.161 E.03131
G1 X234.338 Y166.311 E.04994
G1 X234.781 Y167.181 E.03061
G1 X235.029 Y168.159 E.03164
G1 X235.059 Y170.292 E.06689
G1 X234.717 Y171.685 E.04497
